X:166
T:Gamble M\"orti
R:sl\"angpolska
A:Gotland
Z:id:hn-sp-166
M:3/4
L:1/16
K:Am ^f
e2a2 ^g4 a4 | e2a2 ^g4 a4 | e2f2 =g4 g2e2 | f2d2 e8 :|
w:Gamb-le M\"or-ti, gamb-le M\"or-ti, dan-sar \"aut-e \"ai h\"aus_ar.
[K:D] |: f3d e2c2 A4 | f3d e2c2 A4 | a2g2 f4 e2d2 | c4 d8 :|
w:Dan-sar d\"au sum ja, dan-sar d\"au sum ja, dan-sar \"aut-e \"ai h\"aus-ar.
W:2. Astu J\"orgen, Astu J\"orgen, star u f\"ailar pa g\"aigu.
W:   F\"ailar d\"au sum ja, f\"ailar d\"au sum ja, star u f\"ailar pa g\"aigu!
W:3. K\"anegasi, k\"anegasi, star pa itt bain u l\"oid\"as.
W:   L\"oid\"as d\"au sum ja, l\"oid\"as d\"au sum ja, star pa itt bain u l\"oid\"as!
W:

